X:16777
T:The Gosling
R:Reel
S:Liz Carroll & Billy McComiskey
H:
N:
C: Paddy O'Brien
D:Live Recording broadcast on Clare FM
Z:Adrian Scahill
M:2/2
L:1/8
K:G
Adde fded|cAGE CAGE|C2GC ACGC|C2GC cAGE|\
D2AD dDAD|ABcA d2(3efg|afge =f3e|dcAF G2FG:||\
Add2 afge|AddB cBAG|Add2 fded|cAGC E=FGc|\
Add2 fded|dcAB cABG|A3B ADFA|BccB c2dc:||\
ADD2 ADBD|ADFA c2Bc|ADD2 ADFD|GCC2 EFGc|\
ADD2 ADBD|ADFA c2Bc|A3B ADFA|BccB cedc:||


